X: 8
T: Życiam wiek cały przemarniał w więzieniu
C: Bolesław Jan Ćwiklicz
%%abc-version 2.0
%%abcx-abcm2ps-target-version 5.9.1 (29 Sep 2008)
%%abc-creator hum2abc beta
%%abcx-conversion-date 2021/10/04 07:38:40
%%abc-edited-by Marcin Jachim
%%abc-edited-by Kamil Watkowski
%%abcx-initial-encoding-date 2021-08-11
%%humdrum-veritas 3889696591
%%humdrum-veritas-data 2079836839
%%linebreak <none>
%%barnumbers 0
L: 1/4
M: C
N: Derived from pl-kozmzk--mzk-m-137--006_cwiklicz-boleslaw-jan-zyciam-wiek-caly-przemarnial-w-wiezieniu.krn
%%staves {1 2}
V: 1 clef=treble
V: 2 clef=bass
K: Db
[V:1] Bc2d & F2GB | 
[V:2] D,2E,F, & B,,2B,,B,, | 
[V:1] =efcd & B2=AB | 
[V:2] G,F,_E,F, & B,,2B,,B,, | 
[V:1] _e2=dB & B2B=G | 
[V:2] =G,_G,F,=E, & B,,2B,,B,, | 
[V:1] _d_cB2 & _G2F2 | 
[V:2] F,_E,=D,_D, & B,,2B,,2 | 
[V:1] f2=e=c & FB=GG | 
[V:2] C,D,C,=E, & =A,,B,,C,B,, | 
[V:1] _g2f=e & =ABcc | 
[V:2] E,D,F,=G, & C,B,,=A,,C, | 
[V:1] _e=d_d_c & B2BA | 
[V:2] _G,F,G,E, & E,B,,G,,_A,, | 
[V:1] f2F2 & F2F2 | 
[V:2] D,C,=B,,C, & B,,=A,,^G,,A,, | 
[V:1] Bc2d & F2GB | 
[V:2] D,2E,F, & B,,2B,,B,, | 
[V:1] =efcd & B2=AB | 
[V:2] G,F,_E,F, & B,,2B,,2 | 
[V:1] ee=dB & BBB=G | 
[V:2] =G,_G,F,=E, & B,,B,,B,,B,, | 
[V:1] _d_cB2 & _G2F2 | 
[V:2] F,_E,=D,_D, & B,,2B,,2 | 
[V:1] f2=e=c & FB=GG | 
[V:2] C,D,C,=E, & =A,,B,,C,B,, | 
[V:1] _g2f=e & =ABcc | 
[V:2] _E,D,F,=G, & C,B,,=A,,C, | 
[V:1] _e=d_d_c & BBBA | 
[V:2] _G,F,G,E, & E,B,,G,,A,, | 
[V:1] f2B2 & [F2=A2][F2B2] |]  
[V:2] F,E,D,2 & D,_C,B,,2 |]  


